src/pos-icons/pin-off-outline.svg

<svg height="24" viewBox="0 0 24 24" width="24" xmlns="http://www.w3.org/2000/svg"><path d="m8 6.2v-2.2h-1v-2h10v2h-1v8l2 2v2h-.2l-3.8-3.8v-8.2h-4v4.2zm12 14.5-1.3 1.3-5.9-5.9v5.9h-1.6v-6h-5.2v-2l2-2v-.7l-6-6 1.3-1.3zm-11.2-6.7h1.8l-.9-.9z"/></svg>

<?xml version="1.0" encoding="UTF-8"?><!DOCTYPE svg PUBLIC "-//W3C//DTD SVG 1.1//EN" "http://www.w3.org/Graphics/SVG/1.1/DTD/svg11.dtd"><svg xmlns="http://www.w3.org/2000/svg" xmlns:xlink="http://www.w3.org/1999/xlink" version="1.1" id="mdi-pin-off-outline" width="24" height="24" viewBox="0 0 24 24"><path d="M8,6.2V4H7V2H17V4H16V12L18,14V16H17.8L14,12.2V4H10V8.2L8,6.2M20,20.7L18.7,22L12.8,16.1V22H11.2V16H6V14L8,12V11.3L2,5.3L3.3,4L20,20.7M8.8,14H10.6L9.7,13.1L8.8,14Z" /></svg>
